source/assets/images/icons/bag.svg

<svg fill="none" height="80" viewBox="0 0 80 80" width="80" xmlns="http://www.w3.org/2000/svg"><path d="m73.1749 17.2786h-19.4384v-3.9719c1.1511-.3901 2.0978-1.2858 2.5246-2.4696.7582-2.10642-.3383-4.43731-2.4444-5.19618-3.9679-1.42946-8.7454-2.18523-13.8167-2.18523s-9.8488.75577-13.8167 2.18523c-2.1061.75887-3.2027 3.08976-2.4442 5.19668.4361 1.2101 1.3914 2.0859 2.5244 2.4691v3.9719h-19.43845c-3.76328 0-6.82505 3.0618-6.82505 6.825v45.6156c0 3.7633 3.06177 6.825 6.82505 6.825h66.34985c3.7633 0 6.8251-3.0617 6.8251-6.825v-45.6156c0-3.7632-3.0618-6.825-6.8251-6.825zm-46.113-9.19933c3.6892-1.32924 8.163-2.03179 12.9381-2.03179s9.2489.70255 12.9382 2.03179c.762.27439 1.1587 1.11793.8845 1.8794-.2096.58143-.7649.97193-1.3821.97193-.1693 0-.3368-.0294-.4974-.0873-3.3255-1.19841-7.5669-1.85845-11.9432-1.85845s-8.6177.66004-11.943 1.85845c-.762.2742-1.6052-.1223-1.8795-.88411-.2743-.76199.1223-1.60536.8844-1.87992zm1.7934 5.22903c.0268-.009.0536-.0171.0803-.0266 3.0507-1.0996 6.9801-1.7051 11.0644-1.7051s8.0137.6055 11.0645 1.7053c.0265.0095.0536.016.0802.025v3.9717h-22.2894zm-26.26351 10.7953c0-2.3341 1.8991-4.2332 4.23326-4.2332h66.34985c2.3342 0 4.2333 1.8991 4.2333 4.2332v12.4406c0 8.4318-6.8598 15.2916-15.2916 15.2916h-16.6738v-1.4687c0-2.2389-1.8215-4.0604-4.0605-4.0604h-2.7646c-2.239 0-4.0605 1.8215-4.0605 4.0604v1.4687h-16.6738c-8.43182 0-15.29161-6.8598-15.29161-15.2916zm40.25921 29.0281c0 .8099-.6589 1.4687-1.4687 1.4687h-2.7646c-.8098 0-1.4687-.6588-1.4687-1.4687v-2.7646c0-.8098.6589-1.4686 1.4687-1.4686h2.7646c.8098 0 1.4687.6588 1.4687 1.4686zm-5.702 3.7846c.4558.1774.9509.2759 1.4687.2759h2.7646c.5178 0 1.0129-.0985 1.4687-.2759v1.7446c0 .8098-.6589 1.4687-1.4687 1.4687h-2.7646c-.8098 0-1.4687-.6589-1.4687-1.4687zm40.2592 12.8029c0 2.3342-1.8991 4.2332-4.2333 4.2332h-66.34985c-2.33416 0-4.23326-1.899-4.23326-4.2332v-23.9103c3.1397 5.163 8.81971 8.6187 15.29161 8.6187h16.6738v4.2333c0 2.2389 1.8215 4.0604 4.0605 4.0604h2.7646c2.239 0 4.0605-1.8215 4.0605-4.0604v-4.2333h16.6738c6.4719 0 12.1519-3.4557 15.2916-8.6187z" fill="#000"/></svg>

<svg width="80" height="80" viewBox="0 0 80 80" fill="none" xmlns="http://www.w3.org/2000/svg">
<path d="M73.1749 17.2786H53.7365V13.3067C54.8876 12.9166 55.8343 12.0209 56.2611 10.8371C57.0193 8.73068 55.9228 6.39979 53.8167 5.64092C49.8488 4.21146 45.0713 3.45569 40 3.45569C34.9287 3.45569 30.1512 4.21146 26.1833 5.64092C24.0772 6.39979 22.9806 8.73068 23.7391 10.8376C24.1752 12.0477 25.1305 12.9235 26.2635 13.3067V17.2786H6.82505C3.06177 17.2786 0 20.3404 0 24.1036V69.7192C0 73.4825 3.06177 76.5442 6.82505 76.5442H73.1749C76.9382 76.5442 80 73.4825 80 69.7192V24.1036C80 20.3404 76.9382 17.2786 73.1749 17.2786ZM27.0619 8.07927C30.7511 6.75003 35.2249 6.04748 40 6.04748C44.7751 6.04748 49.2489 6.75003 52.9382 8.07927C53.7002 8.35366 54.0969 9.1972 53.8227 9.95867C53.6131 10.5401 53.0578 10.9306 52.4406 10.9306C52.2713 10.9306 52.1038 10.9012 51.9432 10.8433C48.6177 9.64489 44.3763 8.98485 40 8.98485C35.6237 8.98485 31.3823 9.64489 28.057 10.8433C27.295 11.1175 26.4518 10.721 26.1775 9.95919C25.9032 9.1972 26.2998 8.35383 27.0619 8.07927ZM28.8553 13.3083C28.8821 13.2993 28.9089 13.2912 28.9356 13.2817C31.9863 12.1821 35.9157 11.5766 40 11.5766C44.0843 11.5766 48.0137 12.1821 51.0645 13.2819C51.091 13.2914 51.1181 13.2979 51.1447 13.3069V17.2786H28.8553V13.3083ZM2.59179 24.1036C2.59179 21.7695 4.49089 19.8704 6.82505 19.8704H73.1749C75.5091 19.8704 77.4082 21.7695 77.4082 24.1036V36.5442C77.4082 44.976 70.5484 51.8358 62.1166 51.8358H45.4428V50.3671C45.4428 48.1282 43.6213 46.3067 41.3823 46.3067H38.6177C36.3787 46.3067 34.5572 48.1282 34.5572 50.3671V51.8358H17.8834C9.45158 51.8358 2.59179 44.976 2.59179 36.5442V24.1036ZM42.851 53.1317C42.851 53.9416 42.1921 54.6004 41.3823 54.6004H38.6177C37.8079 54.6004 37.149 53.9416 37.149 53.1317V50.3671C37.149 49.5573 37.8079 48.8985 38.6177 48.8985H41.3823C42.1921 48.8985 42.851 49.5573 42.851 50.3671V53.1317ZM37.149 56.9163C37.6048 57.0937 38.0999 57.1922 38.6177 57.1922H41.3823C41.9001 57.1922 42.3952 57.0937 42.851 56.9163V58.6609C42.851 59.4707 42.1921 60.1296 41.3823 60.1296H38.6177C37.8079 60.1296 37.149 59.4707 37.149 58.6609V56.9163ZM77.4082 69.7192C77.4082 72.0534 75.5091 73.9524 73.1749 73.9524H6.82505C4.49089 73.9524 2.59179 72.0534 2.59179 69.7192V45.8089C5.73149 50.9719 11.4115 54.4276 17.8834 54.4276H34.5572V58.6609C34.5572 60.8998 36.3787 62.7213 38.6177 62.7213H41.3823C43.6213 62.7213 45.4428 60.8998 45.4428 58.6609V54.4276H62.1166C68.5885 54.4276 74.2685 50.9719 77.4082 45.8089V69.7192Z" fill="black"/>
</svg>
